!!!!SEGMENT: pl-sa--548-a-ix-28--012_anonim--galop.krn
!!!cenid: 18xx:435
!!!COM: Anonim
!!!COM-rismID: pe30004985
!!!CDT:
!!!CNT:
!!!OTL: Galop
!!!PDT:
!!!AGN:
!!!SMS-siglum: PL-SA
!!!SMS-shelfmark: 548/A IX 28
!!!SMS-shelfwork: 012 W
!!!SMS-variant:
!!!SMS-altvar:
!!!NIFC-rismSourceID: 1001068963
!!!NIFC-rismChildID: 1001068963
!!!NIFC-islandoraID: none
!!!URL-pdf-islandora:
!!!URL-scan: https://bc.bdsandomierz.pl/dlibra/publication/1440/edition/1408/content @EN{Scan in the Sandomierz Diocese Digital Library} @PL{Skany w portalu Cyfrowa Biblioteka Diecezjalna w Sandomierzu}
!!!ONB-nifc: Str. 16, s. 1-3
!!!AIN: 1 empty
!!!key:
**kern	**kern
*part1	*part1
*staff2	*staff1
*I"Pianoforte	*
*I'P-no	*
*Iempty	*Iempty
*I"Galopad	*
*clefF4	*clefG2
*k[f#]	*k[f#]
*G:	*G:
*M2/4	*M2/4
=1	=1
!LO:TX:a:t=P:problem= metrum zapisane z kreską ułamkową	!LO:TX:a:t=P:problem= metrum zapisane z kreską ułamkową
!LO:TX:a:t=P:problem= wszystkie caudy z prawej strony	!LO:TX:a:t=P:problem= wszystkie caudy z prawej strony
4B 4G\	4gg\
4d\	8dd\L
.	8cc#X\J
=2	=2
*rep	*
!LO:TX:a:t=P:problem=brak oznaczeń cyfrowych przy powtórzeniach	!
4B 4G\	4dd\
4d\	8bb\L
.	8aa\J
*Xrep	*
=3	=3
*rep	*
4B 4G\	4gg\
.	8qaa/
4d\	8gg\L
.	8ff#\J
*Xrep	*
=4	=4
*rep	*
4B 4G\	4gg\
4d\	4dd\
*Xrep	*
=5	=5
4D\	4aa\
.	8qbb/
4c 4A 4F#\	8aa\L
.	8gg#X\J
=6	=6
*rep	*
4D\	4aa\
4c 4A 4F#\	8ccc\L
.	8aa\J
*Xrep	*
=7	=7
*rep	*
4D\	8ff#\L
.	8dd\
4c 4A 4F#\	8ee\
.	8ff#\J
*Xrep	*
=8	=8
4B 4G\	4gg\
4r	4r
!LO:TX:a:t=P:problem= łamanie pięciolinii oznaczone zygzakiem	!LO:TX:a:t=P:problem= łamanie pięciolinii oznaczone zygzakiem
!!LO:LB:g=original
=9	=9
4d\	8ff#\L
.	8gg\
4c\	8aa\
.	8ff#\J
=10	=10
4B\	8gg\L
.	8aa\
4G\	8bb\
.	8gg\J
=11	=11
4F#\	8aa\L
.	8bb\
4D\	8ccc\
.	8aa\J
=12	=12
4G\	8bb\L
.	8ddd\
4GG/	8bb\
.	8gg\J
=13	=13
4D\	8ff#\L
.	8gg\
4A 4F#\	8aa\
.	8ff#\J
=14	=14
4G\	8gg\L
.	8aa\
4d 4B\	8bb\
.	8gg\J
=15	=15
4F#\	8aa\L
.	8ccc\
4d 4c 4A\	8aa\
.	8ff#\J
=16	=16
4B 4G\	4gg\
4r	4r
!LO:TX:a:t=P:problem= łamanie pięciolinii oznaczone zygzakiem	!LO:TX:a:t=P:problem= łamanie pięciolinii oznaczone zygzakiem
!!LO:LB:g=original
=17	=17
*clefG2	*
4cc 4f#/	8aa\L
.	8dd\
4d/	8ddd\
.	8dd\J
=18	=18
4b 4g/	8bb\L
.	8dd\
4d/	8ddd\
.	8dd\J
=19	=19
4a 4f#/	8ccc\L
.	8dd\
4d/	8aa\
.	8dd\J
=20	=20
4b 4g/	8bb\L
.	8dd\
4d/	8ddd\
.	8dd\J
=21	=21
4cc 4f#/	8aa\L
.	8dd\J
4d/	8ddd\L
.	8dd\J
=22	=22
4b 4g/	8bb\L
.	8dd\
4d/	8ddd\
.	8dd\J
=23	=23
4cc 4a 4f# 4d/	8ccc\L
.	8aa\
4d/	8ff#\
.	8dd\J
=24	=24
4b 4g 4d/	4gg\
4r	4r
!LO:TX:a:t=P:problem= koniec utworu oznaczony zygzakiem	!LO:TX:a:t=P:problem= koniec utworu zygzakiem
=	=
*-	*-
!!!system-decoration: {(s1,s2)}
!!!RDF**kern: > = above
!!!RDF**kern: < = below
!!!EED: Mateusz Mrugas
!!!EEV: 2020-11-23
!!!ENC: Tomasz Grochalski
!!!END: 2020-06-15
!!!YEC: Copyright 2022 Narodowy Instytut Fryderyka Chopina (https://polishscores.org)
!!!YEM: License CC-BY-4.0 (https://creativecommons.org/licenses/by/4.0)
